static/moon.svg

<svg width="112" height="112" viewBox="0 0 112 112" fill="none" xmlns="http://www.w3.org/2000/svg">
<path d="M56.0064 112C86.9308 112 112 86.9279 112 56C112 25.0721 86.9308 0 56.0064 0C25.0819 0 0.0126953 25.0721 0.0126953 56C0.0126953 86.9279 25.0819 112 56.0064 112Z" fill="url(#paint0_radial)"/>
<path d="M111.951 53.622C111.811 50.2051 111.352 46.8681 110.613 43.631C108.325 42.9715 105.897 42.6518 103.53 42.5419C98.2949 42.2922 92.9403 42.7917 87.8754 41.4429C80.8225 39.5746 75.0783 34.3393 68.1352 32.0813C56.5269 28.3046 43.0505 33.2602 32.0016 28.0449C29.5241 26.8759 27.3063 25.2474 24.9986 23.7787C21.652 21.6506 17.9957 19.8322 14.1895 18.7632C11.8019 21.4508 9.66406 24.3582 7.81592 27.4654C9.43429 27.2656 11.0926 27.2955 12.691 27.5453C17.2764 28.2647 21.4622 30.5027 25.4881 32.8206C29.5141 35.1285 33.5301 37.5764 38.0155 38.7953C46.7068 41.1532 56.3271 38.6754 64.7287 41.9025C69.5738 43.7708 73.5798 47.3876 78.3849 49.3459C88.8544 53.6021 101.312 49.3658 111.801 53.5721C111.861 53.5921 111.901 53.602 111.951 53.622Z" fill="#BAC8CF"/>
<path d="M110.601 68.4388C107.485 67.08 103.898 66.5106 100.462 66.2508C94.8672 65.8412 89.0531 65.961 83.9482 63.6231C78.3738 61.0754 74.4478 55.94 69.3729 52.5031C65.9863 50.2051 62.0902 48.6765 58.0443 48.057C48.6238 46.6183 38.6338 50.0652 29.6329 46.928C25.3372 45.4294 21.6809 42.542 17.595 40.5537C13.3392 38.4856 8.48412 37.3965 3.80883 38.2158C3.47916 38.2758 3.1395 38.3457 2.80983 38.4256C1.0516 43.7509 0.062597 49.4358 0.0026573 55.3505C-0.00733265 55.98 0.012646 56.5994 0.0326259 57.2189C1.09156 57.029 2.1505 56.8192 3.20943 56.6993C5.87675 56.4195 8.604 56.7992 11.0915 57.8083C13.3392 58.7175 15.3572 60.1163 17.555 61.1154C29.3332 66.5006 44.2382 60.0863 55.6467 66.2208C58.6736 67.8494 61.2111 70.2572 64.228 71.8957C73.4987 76.9213 85.4367 73.804 94.9971 78.2701C98.3437 79.8387 101.301 82.2864 104.777 83.4854C107.405 78.8595 109.383 73.804 110.601 68.4388Z" fill="#BAC8CF"/>
<path d="M99.1233 91.7081C93.3092 88.3711 87.0355 85.7834 80.542 86.7525C77.9047 87.1422 75.3872 88.1113 72.7798 88.6409C68.9137 89.4202 64.8878 89.2203 61.0316 88.411C60.0526 88.2112 59.0137 87.9715 58.0846 88.3211C57.2455 88.6409 56.6361 89.4102 56.3164 90.2394C55.6171 92.0478 56.1266 94.1759 57.2754 95.7445C58.4243 97.3131 60.1326 98.3821 61.9108 99.1714C65.3373 100.69 69.1635 101.28 72.8897 100.86C76.0066 100.5 79.0435 99.4512 82.1704 99.4812C84.6679 99.5011 87.0854 100.211 89.503 100.87C93.0494 98.2023 96.2862 95.1251 99.1233 91.7081Z" fill="#BAC8CF"/>
<defs>
<radialGradient id="paint0_radial" cx="0" cy="0" r="1" gradientUnits="userSpaceOnUse" gradientTransform="translate(55.9912 55.9789) rotate(0.647553) scale(55.9917 55.998)">
<stop offset="0.2874" stop-color="#F5F5F5"/>
<stop offset="0.6616" stop-color="#D8DFE2"/>
<stop offset="1" stop-color="#BAC8CF"/>
</radialGradient>
</defs>
</svg>

<svg width="112" height="112" fill="none" xmlns="http://www.w3.org/2000/svg"><path d="M56.006 112C86.931 112 112 86.928 112 56S86.93 0 56.006 0 .013 25.072.013 56s25.069 56 55.993 56z" fill="url(#paint0_radial)"/><path d="M111.951 53.622a54.957 54.957 0 00-1.338-9.991c-2.288-.66-4.716-.98-7.083-1.09-5.235-.249-10.59.25-15.655-1.098-7.052-1.868-12.797-7.104-19.74-9.362-11.608-3.776-25.085 1.18-36.133-4.036-2.478-1.17-4.696-2.798-7.003-4.266-3.347-2.128-7.003-3.947-10.81-5.016a56.9 56.9 0 00-6.373 8.702c1.618-.2 3.277-.17 4.875.08 4.585.72 8.771 2.958 12.797 5.276 4.026 2.308 8.042 4.755 12.528 5.974 8.69 2.358 18.311-.12 26.713 3.108 4.845 1.868 8.85 5.485 13.656 7.443 10.47 4.256 22.927.02 33.416 4.226.06.02.1.03.15.05zM110.601 68.439c-3.116-1.359-6.703-1.928-10.139-2.188-5.595-.41-11.409-.29-16.514-2.628-5.574-2.548-9.5-7.683-14.575-11.12a27.714 27.714 0 00-11.329-4.446c-9.42-1.439-19.41 2.008-28.411-1.129-4.296-1.499-7.952-4.386-12.038-6.374-4.256-2.068-9.11-3.157-13.786-2.338-.33.06-.67.13-1 .21A55.695 55.695 0 00.004 55.35c-.01.63.01 1.25.03 1.869 1.059-.19 2.117-.4 3.176-.52 2.668-.28 5.395.1 7.883 1.11 2.247.909 4.265 2.307 6.463 3.306 11.778 5.386 26.683-1.029 38.092 5.106 3.027 1.628 5.564 4.036 8.581 5.675 9.27 5.025 21.209 1.908 30.77 6.374 3.346 1.569 6.303 4.016 9.779 5.215a55.15 55.15 0 005.824-15.046zM99.123 91.708c-5.814-3.337-12.088-5.925-18.581-4.956-2.637.39-5.155 1.36-7.762 1.889-3.866.78-7.892.58-11.748-.23-.98-.2-2.018-.44-2.947-.09-.84.32-1.449 1.09-1.769 1.918-.699 1.809-.19 3.937.96 5.505 1.148 1.57 2.857 2.638 4.635 3.427a21.335 21.335 0 0010.979 1.689c3.117-.36 6.153-1.409 9.28-1.379 2.498.02 4.915.73 7.333 1.389a57.212 57.212 0 009.62-9.162z" fill="#BAC8CF"/><defs><radialGradient id="paint0_radial" cx="0" cy="0" r="1" gradientUnits="userSpaceOnUse" gradientTransform="rotate(.648 -4924.99 4982.063) scale(55.9917 55.998)"><stop offset=".287" stop-color="#F5F5F5"/><stop offset=".662" stop-color="#D8DFE2"/><stop offset="1" stop-color="#BAC8CF"/></radialGradient></defs></svg>
